src/images/electricity.svg

<?xml version="1.0" encoding="UTF-8" standalone="no"?>
<svg width="560px" height="560px" viewBox="0 0 560 560" version="1.1" xmlns="http://www.w3.org/2000/svg" xmlns:xlink="http://www.w3.org/1999/xlink" xmlns:sketch="http://www.bohemiancoding.com/sketch/ns">
    <!-- Generator: bin/sketchtool 1.2 (196) - http://www.bohemiancoding.com/sketch -->
    <title>electricity</title>
    <desc>Created with bin/sketchtool.</desc>
    <defs></defs>
    <g id="Nouns" stroke="none" stroke-width="1" fill="none" fill-rule="evenodd" sketch:type="MSPage">
        <g id="electricity" sketch:type="MSArtboardGroup" fill="#1A1918">
            <path d="M207.928743,480 L207.928743,480 C203.861847,480 200.131198,478.194019 197.696696,475.043356 C196.148834,473.043143 193.815769,468.71962 195.555236,462.210989 C195.589049,462.082124 195.626618,461.953259 195.666066,461.824394 L242.780069,308.781007 L184.464726,308.781007 C177.98587,308.781007 172.500727,305.964647 169.418151,301.056561 C166.333697,296.146608 166.192811,290.009632 169.036821,284.220033 L246.375467,127.097781 C250.701593,118.342413 260.935518,112 270.714853,112 L368.389858,112 C375.137336,112 380.631872,114.954563 383.462732,120.103571 C386.293592,125.254447 385.82773,131.445583 382.189127,137.087641 L336.213479,208.404298 L392.485042,208.404298 C399.3302,208.404298 404.965622,211.532549 407.559794,216.771202 C410.152088,222.009856 409.207216,228.357871 405.02949,233.751536 L220.219598,473.659455 C220.163243,473.73416 220.105011,473.805129 220.0449,473.877966 C216.885307,477.768203 212.469015,480 207.928743,480 L207.928743,480 Z M247.245201,287.230625 C253.374661,287.230625 258.846655,289.852753 262.259842,294.426536 C265.669272,298.994717 266.606631,304.954269 264.831473,310.777485 L229.183675,426.580675 L380.652535,229.95468 L326.541217,229.95468 C319.791861,229.95468 314.299203,227.000117 311.468343,221.847373 C308.639362,216.698365 309.105223,210.510965 312.747584,204.868907 L358.723231,133.550382 L270.714853,133.550382 C269.262793,133.550382 266.480773,135.279792 265.836457,136.585253 L191.687458,287.230625 L247.245201,287.230625 Z" id="Imported-Layers" sketch:type="MSShapeGroup"></path>
        </g>
    </g>
</svg>

<svg width="560" height="560" viewBox="0 0 560 560" xmlns="http://www.w3.org/2000/svg"><title>electricity</title><desc>Created with bin/sketchtool.</desc><path d="M207.93 480c-4.068 0-7.8-1.806-10.233-4.957-1.548-2-3.88-6.323-2.142-12.832.034-.127.072-.256.11-.385L242.78 308.78h-58.315c-6.48 0-11.964-2.815-15.047-7.723-3.084-4.91-3.225-11.047-.38-16.837l77.337-157.122c4.327-8.756 14.56-15.098 24.34-15.098h97.675c6.747 0 12.242 2.955 15.073 8.104 2.83 5.15 2.365 11.342-1.274 16.984l-45.978 71.316h56.272c6.845 0 12.48 3.13 15.075 8.367 2.59 5.24 1.646 11.59-2.53 16.983L220.22 473.66c-.057.074-.115.145-.175.218-3.16 3.89-7.576 6.122-12.116 6.122zm39.315-192.77c6.13 0 11.602 2.623 15.015 7.197 3.41 4.568 4.347 10.527 2.57 16.35L229.185 426.58l151.47-196.625H326.54c-6.748 0-12.24-2.955-15.072-8.108-2.83-5.15-2.363-11.336 1.28-16.978l45.975-71.32h-88.008c-1.452 0-4.234 1.73-4.88 3.034L191.688 287.23h55.558z" fill="#1A1918" fill-rule="evenodd"/></svg>
